X: 30
T: Ave Maria gratia plena
N: Derived from Ort2001-Ave_Maria_gratia_plena.krn
C: Marbrianus de Orto
%%abc-version 2.0
%%abcx-abcm2ps-target-version 5.9.1 (29 Sep 2008)
%%abc-creator hum2abc beta
%%abcx-conversion-date 2019/02/17 07:28:37
%%abc-edited-by Jesse Rodin
%%abc-edited-by Jesse Rodin (8/2012)
%%abcx-initial-encoding-date 2012/08/11/
%%humdrum-veritas 1965090613
%%humdrum-veritas-data 638043910
%%linebreak <none>
%%barnumbers 0
L: 1/4
M: 2/1
Q: 1/2=120
%%staves [1 2 3 4]
V: 1 clef=treble
V: 2 clef=treble-8
V: 3 clef=treble-8
V: 4 clef=bass
K: F
[V:1] z8 | 
[V:2] F4A4- | 
[V:3] z8 | 
[V:4] F,,8 | 
[V:1] z8 | 
[V:2] A2GFc4- | 
[V:3] z8 | 
[V:4] F,,4F,,4 | 
[V:1] z8 | 
[V:2] c2B3AGF | 
[V:3] z8 | 
[V:4] G,,8 | 
[V:1] z8 | 
[V:2] E2F4E2 | 
[V:3] z8 | 
[V:4] G,,8 | 
[V:1] C4F4- | 
[V:2] F4z4 | 
[V:3] F8 | 
[V:4] z8 | 
[V:1] F2G2A4 | 
[V:2] z8 | 
[V:3] F4F4 | 
[V:4] z8 | 
[V:1] D3ED2G2- | 
[V:2] B8 | 
[V:3] G8 | 
[V:4] z8 | 
[V:1] G2FED4 | 
[V:2] B4B4 | 
[V:3] G8 | 
[V:4] z4G,,4 | 
[V:1] CDEFG2A2 | 
[V:2] c8 | 
[V:3] z8 | 
[V:4] A,,B,,C,D,E,2F,2- | 
[V:1] G4A4 | 
[V:2] c8 | 
[V:3] z8 | 
[V:4] F,2E,2F,4 | 
[V:1] F8 | 
[V:2] z8 | 
[V:3] A3GFED2- | 
[V:4] D,6B,,2 | 
[V:1] F4F4 | 
[V:2] z8 | 
[V:3] DEFGA2B2- | 
[V:4] B,,2D,4B,,2 | 
[V:1] G8 | 
[V:2] G2c3de2- | 
[V:3] B2G2c4 | 
[V:4] _E,4C,4 | 
[V:1] G8 | 
[V:2] e2d4c2 | 
[V:3] B4G4 | 
[V:4] G,3F,E,4 | 
[V:1] F6D2 | 
[V:2] d3cA4 | 
[V:3] A3GF4 | 
[V:4] D,8 | 
[V:1] D4B,4 | 
[V:2] B4z2B2 | 
[V:3] z2G3FED | 
[V:4] G,,8 | 
[V:1] z2D2F3E | 
[V:2] G2B2A4 | 
[V:3] E2D3EF2- | 
[V:4] G,,4F,,4 | 
[V:1] DCD2=B,3A, | 
[V:2] z2G2G3F | 
[V:3] FEDCD4 | 
[V:4] G,,8 | 
[V:1] C4z4 | 
[V:2] E3DC2c2- | 
[V:3] C4z4 | 
[V:4] A,,8 | 
[V:1] G8 | 
[V:2] c2=B2c2CD | 
[V:3] z8 | 
[V:4] G,,4C,4 | 
[V:1] G4F4 | 
[V:2] EFG2A2B2- | 
[V:3] z8 | 
[V:4] z8 | 
[V:1] G8 | 
[V:2] BAGFE4 | 
[V:3] z8 | 
[V:4] z4C,4 | 
[V:1] A3GA2G2- | 
[V:2] c8 | 
[V:3] z2F4_E2- | 
[V:4] F,,4z4 | 
[V:1] G2FED4 | 
[V:2] c4B4 | 
[V:3] E2DCG4 | 
[V:4] z8 | 
[V:1] C2G2A2c2- | 
[V:2] c8 | 
[V:3] G4F2A2 | 
[V:4] z8 | 
[V:1] c2BABAGF | 
[V:2] d8 | 
[V:3] G8 | 
[V:4] z4G,,4 | 
[V:1] E2G3FED | 
[V:2] c4B2G2 | 
[V:3] G8 | 
[V:4] C,2B,,A,,G,,2C,2- | 
[V:1] E2C4=B,2 | 
[V:2] c4z2F2 | 
[V:3] G4F4 | 
[V:4] C,2E,2D,4 | 
[V:1] C2E4D2- | 
[V:2] E2C2D4 | 
[V:3] G8 | 
[V:4] C,4B,,4 | 
[V:1] D2^C2D4 | 
[V:2] E4D4 | 
[V:3] A8 | 
[V:4] A,,4z4 | 
[V:1] z8 | 
[V:2] CDEFE2F2- | 
[V:3] c6BA | 
[V:4] A,,8 | 
[V:1] z4C4 | 
[V:2] F2E2A4 | 
[V:3] B4A4 | 
[V:4] G,,4F,,4 | 
[V:1] B,2D4CB, | 
[V:2] G2F4E2 | 
[V:3] z8 | 
[V:4] G,,8 | 
[V:1] A,4z2C2 | 
[V:2] F4z4 | 
[V:3] A8 | 
[V:4] F,,8 | 
[V:1] D3EFGA2 | 
[V:2] z8 | 
[V:3] G4F4 | 
[V:4] z8 | 
[V:1] G2F4E2 | 
[V:2] z8 | 
[V:3] G8 | 
[V:4] z4C,4 | 
[V:1] A8 | 
[V:2] FGABc4- | 
[V:3] F8 | 
[V:4] D,2F,6 | 
[V:1] G4F4 | 
[V:2] c2B4A2- | 
[V:3] z8 | 
[V:4] C,2E,2D,4 | 
[V:1] G8 | 
[V:2] A2GFE4 | 
[V:3] z8 | 
[V:4] C,8 | 
[V:1] F8 | 
[V:2] z4c4 | 
[V:3] z8 | 
[V:4] F,,8 | 
[V:1] z8 | 
[V:2] d8 | 
[V:3] B,3CDEFG | 
[V:4] z8 | 
[V:1] z8 | 
[V:2] c4B4 | 
[V:3] E2C2D4 | 
[V:4] z4G,,4 | 
[V:1] z8 | 
[V:2] c8 | 
[V:3] C2G3^F^FE | 
[V:4] A,,8 | 
[V:1] D3EFGA2 | 
[V:2] B4z4 | 
[V:3] G4C4 | 
[V:4] G,,4A,,4 | 
[V:1] B2c4B2 | 
[V:2] z8 | 
[V:3] D2F3EE2 | 
[V:4] G,,2F,,2G,,4 | 
[V:1] A4G2F2 | 
[V:2] z4B4- | 
[V:3] F4_E4- | 
[V:4] F,,4z4 | 
[V:1] G4F3G | 
[V:2] B2c2d4 | 
[V:3] E4D3=E | 
[V:4] z8 | 
[V:1] A2B4A2 | 
[V:2] c2B2c4 | 
[V:3] F2G2F4 | 
[V:4] z4F,,4 | 
[V:1] B4A4 | 
[V:2] B4z2c2- | 
[V:3] D2E2F4 | 
[V:4] G,,4F,,4 | 
[V:1] G2F2G4 | 
[V:2] c2A2G2c2 | 
[V:3] C2F4E2 | 
[V:4] z2F,,2C,4 | 
[V:1] F4z4 | 
[V:2] A4c4- | 
[V:3] A4G2F2 | 
[V:4] D,4E,2F,2- | 
[V:1] z4A4 | 
[V:2] c4c4- | 
[V:3] G4F4 | 
[V:4] F,2E,2F,4 | 
[V:1] G2F2G4 | 
[V:2] c2A2G4 | 
[V:3] C2D4C2 | 
[V:4] z2F,,2E,,4 | 
[V:1] F4z4 | 
[V:2] A4G4 | 
[V:3] D2A,2C4- | 
[V:4] D,,2F,,4E,,2 | 
[V:1] A4G2F2 | 
[V:2] F4B4- | 
[V:3] C2F2_E2D2 | 
[V:4] F,,4z4 | 
[V:1] G4F2A2 | 
[V:2] B4A2c2- | 
[V:3] _E4F4 | 
[V:4] z4z2F,2 | 
[V:1] G2F2G4 | 
[V:2] c2d2B2c2 | 
[V:3] z8 | 
[V:4] _E,2D,2E,4 | 
[V:1] F4z2F2 | 
[V:2] d4B4 | 
[V:3] A4G2F2 | 
[V:4] D,4_E,2D,2 | 
[V:1] E2D4C2 | 
[V:2] z4B2c2 | 
[V:3] G4F4 | 
[V:4] C,2B,,4A,,2 | 
[V:1] D2A,2C4- | 
[V:2] B2c2F4 | 
[V:3] z4A4 | 
[V:4] G,,2F,,2z2F,2 | 
[V:1] C2D2B,2C2 | 
[V:2] z4_E4 | 
[V:3] G2F2G4 | 
[V:4] E,2D,4C,2 | 
[V:1] A,B,CDC2F2- | 
[V:2] D3EFGA2- | 
[V:3] F4z4 | 
[V:4] D,2C,B,,A,,2F,,2 | 
[V:1] FGA2B2c2- | 
[V:2] ABc2d2f2- | 
[V:3] A4G2F2 | 
[V:4] F,4z4 | 
[V:1] c2B2A2GF | 
[V:2] fee2f2ed | 
[V:3] G4F4 | 
[V:4] z8 | 
[V:1] [M:3/1]E4F4G4 | 
[V:2] [M:3/1]c8B4 | 
[V:3] [M:3/1]A8G4 | 
[V:4] [M:3/1]z12 | 
[V:1] A4B8 | 
[V:2] c4B4G4 | 
[V:3] F4G8 | 
[V:4] F,,8E,,4 | 
[V:1] A8G4 | 
[V:2] c4F4E4 | 
[V:3] F8z4 | 
[V:4] F,,2G,,2A,,2B,,2C,4 | 
[V:1] F4E8 | 
[V:2] F4c8 | 
[V:3] A8G4 | 
[V:4] D,4C,8 | 
[V:1] A6G2E4 | 
[V:2] A6B2c4 | 
[V:3] F8G4- | 
[V:4] D,8C,4 | 
[V:1] F6E2E2D2 | 
[V:2] d4c8 | 
[V:3] G12 | 
[V:4] B,,4C,8 | 
[V:1] [M:2/1]F8 |]  
[V:2] [M:2/1]c8 |]  
[V:3] [M:2/1]F8 |]  
[V:4] [M:2/1]F,,8 |]  



